X: 1
T:Paddy O'Rafferty
R:Jig
S:Tommy Peoples, Donegal (fiddle)
N:As played
D:Demo tape - 197?
Z:Bernie Stocks
M:6/8
L:1/8
K:D
(3.d.d.f f  (3.c.c.e e|(3.d.d.f f {a}gfe|dfd cec|~d3 dBA|!
dff cee|dff gfe|(3.f.g.a f {a}gfe|1 dfe dBA:|2 dfe dcB||!
+F3A3+ ~B3|gfe fdB|(3.A.A.F A  (3BAB c|dfe dcB|!
A3 ~B3|efe efg|(3.f.g.a A gfe|dfe dcB:|!
{a}fAA eAA|def gfe|(3.f.a.f A  (3.e.f.e A|dfe dBA|!
(3.f.f.f A  (3.e.e.e A|def gfe|faf {a}gfe|dfe dBA:|!
